X:36 
T:Blooming Meadows (2nd Setting), The 
S:J.O'Neill
B:ONMI.0918
F:file ID: onmi.jigs/036bm2
R:jig
Z:Brennan/Black
Q:160
M:6/8
L:1/8
K:G
G/F/|D2G G2A|B2d cAG|F2D DED|F2F E2D|
"5"D2G G2A|BAG Ade|fed cAF|AGG G2 :|
B/c/|"9"def g2a|bag afd|fef afd|d-d/e/f/g/ afd|
"13"def g2a|bag afd|fed cAF|AGG G2 :|
G/A/|"17"B3 c3|dcB cAG|F3 DED|FEF AFD|
"21"B3cBc|dcB cde|fed cAF|AGG G2 :|

